assets/icons/logos/php.svg

<svg xmlns="http://www.w3.org/2000/svg" fill="none" viewBox="2 2 28 28">
<circle cx="16" cy="16" r="14" fill="#8892BF"/>
<path d="M14.4392 10H16.1192L15.6444 12.5242H17.154C17.9819 12.5419 18.5986 12.7269 19.0045 13.0793C19.4184 13.4316 19.5402 14.1014 19.3698 15.0881L18.5541 19.4889H16.8497L17.6288 15.2863C17.7099 14.8457 17.6856 14.533 17.5558 14.348C17.426 14.163 17.146 14.0705 16.7158 14.0705L15.3644 14.0573L14.3661 19.4889H12.6861L14.4392 10Z" fill="white"/>
<path fill-rule="evenodd" clip-rule="evenodd" d="M6.74092 12.5243H10.0036C10.9612 12.533 11.6552 12.8327 12.0854 13.4229C12.5156 14.0132 12.6576 14.8193 12.5115 15.8414C12.4548 16.3085 12.3289 16.7665 12.1341 17.2159C11.9474 17.6652 11.6878 18.0704 11.355 18.4317C10.9491 18.8898 10.5149 19.1805 10.0523 19.304C9.58969 19.4274 9.11076 19.489 8.61575 19.489H7.15484L6.69222 22H5L6.74092 12.5243ZM7.43485 17.9956L8.16287 14.0441H8.40879C8.49815 14.0441 8.5914 14.0396 8.6888 14.0309C9.33817 14.0221 9.87774 14.0882 10.308 14.2291C10.7462 14.37 10.8923 14.9031 10.7462 15.8282C10.5678 16.9296 10.2186 17.5727 9.69926 17.7577C9.1799 17.934 8.53053 18.0176 7.75138 18.0088H7.58094C7.53224 18.0088 7.48355 18.0043 7.43485 17.9956Z" fill="white"/>
<path fill-rule="evenodd" clip-rule="evenodd" d="M24.4365 12.5243H21.1738L19.4329 22H21.1251L21.5878 19.489H23.0487C23.5437 19.489 24.0226 19.4274 24.4852 19.304C24.9479 19.1805 25.382 18.8898 25.7879 18.4317C26.1207 18.0704 26.3803 17.6652 26.567 17.2159C26.7618 16.7665 26.8877 16.3085 26.9444 15.8414C27.0905 14.8193 26.9486 14.0132 26.5183 13.4229C26.0881 12.8327 25.3942 12.533 24.4365 12.5243ZM22.5958 14.0441L21.8678 17.9956C21.9165 18.0043 21.9652 18.0088 22.0139 18.0088H22.1843C22.9635 18.0176 23.6128 17.934 24.1322 17.7577C24.6515 17.5727 25.0007 16.9296 25.1792 15.8282C25.3253 14.9031 25.1792 14.37 24.7409 14.2291C24.3107 14.0882 23.7711 14.0221 23.1217 14.0309C23.0243 14.0396 22.9311 14.0441 22.8417 14.0441H22.5958Z" fill="white"/>
</svg>

<svg xmlns="http://www.w3.org/2000/svg" fill="none" viewBox="2 2 28 28"><circle cx="16" cy="16" r="14" fill="#8892BF"/><path d="M14.44 10h1.68l-.476 2.524h1.51c.828.018 1.445.203 1.85.555.414.353.536 1.022.366 2.01l-.816 4.4H16.85l.779-4.203c.08-.44.057-.753-.073-.938-.13-.185-.41-.278-.84-.278l-1.352-.013-.998 5.432h-1.68L14.44 10Z" fill="#fff"/><path fill-rule="evenodd" clip-rule="evenodd" d="M6.74 12.524h3.264c.957.009 1.651.309 2.081.899.43.59.573 1.396.426 2.418a4.938 4.938 0 0 1-.377 1.375c-.187.45-.446.854-.779 1.216-.406.458-.84.748-1.303.872a5.55 5.55 0 0 1-1.436.185H7.155L6.692 22H5l1.74-9.476Zm.695 5.472.728-3.952h.246c.09 0 .182-.004.28-.013.65-.009 1.189.057 1.619.198.438.141.584.674.438 1.6-.178 1.1-.527 1.744-1.047 1.929-.52.176-1.168.26-1.948.25h-.17a.83.83 0 0 1-.146-.012ZM24.436 12.524h-3.262L19.433 22h1.692l.463-2.511h1.46a5.55 5.55 0 0 0 1.437-.185c.463-.123.897-.414 1.303-.872.333-.362.592-.767.779-1.216.195-.45.32-.908.377-1.375.146-1.022.005-1.828-.426-2.418-.43-.59-1.124-.89-2.082-.899Zm-1.84 1.52-.728 3.952a.83.83 0 0 0 .146.013h.17c.78.009 1.429-.075 1.948-.251.52-.185.869-.828 1.047-1.93.146-.925 0-1.458-.438-1.599-.43-.14-.97-.207-1.62-.198a3.15 3.15 0 0 1-.28.013h-.245Z" fill="#fff"/></svg>
